icon-themes/breeze_svg/cmd/sc_sbanativesql.svg

<svg viewBox="0 0 16 16" xmlns="http://www.w3.org/2000/svg">/&gt;<path d="m8 2c-3.14159 0-6 .9528-6 2v4c.00681.66405.77174.98126 1 1.09375 1.08093.55161 3.02343.90325 5 .90625 1.97657-.00256 3.91907-.35464 5-.90625v2.90625c-.0063.148865-.148572.242918-.21875.28125-1.159889.443581-2.56301.64734-3.78125.71875v.96875c.6331789-.03035 1.228842-.122301 1.8125-.21875 1.355552-.24325 2.409471-.667108 2.875-1.15625.09323-.09182.166409-.185898.21875-.28125.055747-.103133.087125-.207729.09375-.3125v-8c.01449-.98438-2.46755-1.9026-5.40625-2-.19775-.003-.39599-.003-.59375 0zm0 1c.28058-.005.56317-.005.84375 0 .0208-.00003.0417-.00003.0625 0 2.3033.08483 4.13245.53166 4.09375 1 0 .5236-2.38201 1-5 1s-5-.4764-5-1 2.38201-1 5-1zm-5 2.09375c1.08093.55161 3.02343.90325 5 .90625 1.97657-.00256 3.91907-.35464 5-.90625v2.90625c0 .5236-2.38201 1-5 1s-5-.4764-5-1zm-.3125 4.21875-.6875.6875 1.65625 1.65625-1.65625 1.65625.6875.6875 2-2 .375-.34375-.375-.34375zm2.3125 3.6875v1h3v-1z" fill="#4d4d4d"/></svg>

<svg xmlns="http://www.w3.org/2000/svg" viewBox="0 0 16 16">
     />
 <path 
     style="fill:#4d4d4d" 
     d="M 8 2 C 4.85841 2 2 2.9528 2 4 L 2 8 C 2.00681 8.66405 2.77174 8.98126 3 9.09375 C 4.08093 9.64536 6.02343 9.997 8 10 C 9.97657 9.99744 11.91907 9.64536 13 9.09375 L 13 12 C 12.9937 12.148865 12.851428 12.242918 12.78125 12.28125 C 11.621361 12.724831 10.21824 12.92859 9 13 L 9 13.96875 C 9.6331789 13.9384 10.228842 13.846449 10.8125 13.75 C 12.168052 13.50675 13.221971 13.082892 13.6875 12.59375 C 13.78073 12.50193 13.853909 12.407852 13.90625 12.3125 C 13.961997 12.209367 13.993375 12.104771 14 12 L 14 4 C 14.01449 3.01562 11.53245 2.0974 8.59375 2 C 8.396 1.997 8.19776 1.997 8 2 z M 8 3 C 8.28058 2.995 8.56317 2.995 8.84375 3 C 8.86455 2.99997 8.88545 2.99997 8.90625 3 C 11.20955 3.08483 13.0387 3.53166 13 4 C 13 4.5236 10.61799 5 8 5 C 5.38201 5 3 4.5236 3 4 C 3 3.4764 5.38201 3 8 3 z M 3 5.09375 C 4.08093 5.64536 6.02343 5.997 8 6 C 9.97657 5.99744 11.91907 5.64536 13 5.09375 L 13 8 C 13 8.5236 10.61799 9 8 9 C 5.38201 9 3 8.5236 3 8 L 3 5.09375 z M 2.6875 9.3125 L 2 10 L 3.65625 11.65625 L 2 13.3125 L 2.6875 14 L 4.6875 12 L 5.0625 11.65625 L 4.6875 11.3125 L 2.6875 9.3125 z M 5 13 L 5 14 L 8 14 L 8 13 L 5 13 z "
     />
 </svg>
